public/resend.svg

<svg fill="none" height="2500" width="2500" xmlns="http://www.w3.org/2000/svg" viewBox="186 154 244 293.471"><path d="M186 447.471V154h132.062c18.726 0 35.635 4.053 50.728 12.158 15.373 8.105 27.391 19.285 36.055 33.54 8.665 13.974 12.997 29.906 12.997 47.793 0 18.447-4.332 35.077-12.997 49.89-8.664 14.534-20.543 25.994-35.636 34.378-15.092 8.385-32.142 12.578-51.147 12.578h-64.145v103.134zm162.667 0L274.041 314.99l72.949-10.481L430 447.471zm-94.75-157.636h57.856c7.267 0 13.556-1.537 18.866-4.612 5.59-3.354 9.782-7.965 12.577-13.835 3.075-5.869 4.612-12.577 4.612-20.123 0-7.547-1.677-14.115-5.031-19.705-3.354-5.869-8.245-10.341-14.673-13.416-6.149-3.074-13.696-4.611-22.64-4.611h-51.567z" fill="#000"/></svg>

<svg width="600" height="600" viewBox="0 0 600 600" fill="none" xmlns="http://www.w3.org/2000/svg">
<path d="M186 447.471V154H318.062C336.788 154 353.697 158.053 368.79 166.158C384.163 174.263 396.181 185.443 404.845 199.698C413.51 213.672 417.842 229.604 417.842 247.491C417.842 265.938 413.51 282.568 404.845 297.381C396.181 311.915 384.302 323.375 369.209 331.759C354.117 340.144 337.067 344.337 318.062 344.337H253.917V447.471H186ZM348.667 447.471L274.041 314.99L346.99 304.509L430 447.471H348.667ZM253.917 289.835H311.773C319.04 289.835 325.329 288.298 330.639 285.223C336.229 281.869 340.421 277.258 343.216 271.388C346.291 265.519 347.828 258.811 347.828 251.265C347.828 243.718 346.151 237.15 342.797 231.56C339.443 225.691 334.552 221.219 328.124 218.144C321.975 215.07 314.428 213.533 305.484 213.533H253.917V289.835Z" fill="white"/>
</svg>
